outputs/icons/communication/sms_sharp.svg

<svg xmlns="http://www.w3.org/2000/svg" width="1200" height="1200" fill="none"><g clip-path="url(#a)"><path fill="#000" d="M1100 100H100.5l-.5 1000 200-200h800zM450 550H350V450h100zm200 0H550V450h100zm200 0H750V450h100z"/></g><defs><clipPath id="a"><path fill="#fff" d="M0 0h1200v1200H0z"/></clipPath></defs></svg>

<svg width="1200" height="1200" viewBox="0 0 1200 1200" fill="none" xmlns="http://www.w3.org/2000/svg"><g clip-path="url(#clip0_124_694)"><path d="M1100 100H100.5L100 1100L300 900H1100V100ZM450 550H350V450H450V550ZM650 550H550V450H650V550ZM850 550H750V450H850V550Z" fill="#1D1E23"/></g><defs><clipPath id="clip0_124_694"><path width="24" fill="white" d="M0 0H1200V1200H0V0z"/></clipPath></defs></svg>
